images/singulardtv.svg

<svg height="250" viewBox="0 0 250 250" width="250" xmlns="http://www.w3.org/2000/svg"><g fill="#aa0e20"><path d="m140.1875 89.492188-13.800781 48.34375-17.695313-61.179688v-.242188l-3.566406-11.875-4.027344 12.117188 25.355469 83.253906 25.289063-83.253906-3.964844-12.117188zm0 0"/><path d="m126.453125 0-3.105469 8.996094-14.324218 43.667968 3.628906 12.476563 13.800781-39.949219 13.535156 39.949219 3.699219-13.078125-12.019531-36.585938zm0 0"/><path d="m126.453125 23.753906c-42.457031 0-76.921875 57.460938-76.921875 57.578125 0 0 34.464844 57.582031 76.921875 57.582031 42.453125 0 76.921875-57.582031 76.921875-57.582031 0 .121094-34.46875-57.578125-76.921875-57.578125zm0 102.445313c-33.078125 0-70.453125-44.746094-70.453125-44.867188 0 0 37.375-44.863281 70.453125-44.863281s70.449219 43.785156 70.449219 44.863281c-.066406 1.082031-37.4375 44.867188-70.449219 44.867188zm0 0"/></g><path d="m16.386719 197.457031c-1.914063-1.800781-3.898438-3.121093-6.472657-3.121093-3.628906 0-5.742187 3.960937-5.742187 8.878906 0 5.757812 3.234375 9.476562 6.402344 12.476562 5.8125 5.636719 8.386719 11.875 8.253906 19.433594-.132813 10.078125-4.292969 14.996094-9.640625 14.875-4.6875-.121094-7.460938-2.640625-9.1757812-5.277344l1.3867192-5.039062c1.78125 2.277344 4.289062 4.796875 7.59375 4.796875 4.09375 0 6.402343-4.917969 6.402343-9.117188 0-6.476562-2.707031-9.957031-6.867187-14.394531-4.753906-5.15625-7.855469-9.597656-7.855469-17.753906 0-6.597656 2.773437-14.394532 9.046875-14.394532 3.035156 0 6.140625 1.796876 7.789062 3.839844zm75.269531 25.671875h8.847656v18.472656c-4.160156 6.839844-8.386718 8.398438-12.414062 8.398438-10.429688 0-17.363282-13.914062-17.363282-30.710938 0-17.753906 7.722657-30.710937 16.902344-30.710937 5.875 0 9.773438 4.441406 12.28125 8.398437-.726562 1.558594-1.386718 3.238282-2.113281 4.679688-2.375-3.839844-5.613281-7.558594-10.101563-7.558594-7.261718 0-13.140624 10.796875-13.140624 25.070313 0 14.398437 5.613281 25.3125 13.601562 25.3125 3.5 0 7-2.519531 8.847656-5.398438v-10.796875h-5.414062v-5.15625zm24.496094-33.230468h3.5v38.269531c0 8.875 2.96875 16.433593 7.855468 16.433593 4.886719 0 7.859376-7.675781 7.859376-16.433593v-38.269531h3.5v38.628906c0 10.796875-3.5 21.472656-11.425782 21.472656-7.855468 0-11.355468-10.796875-11.355468-21.472656v-38.628906zm56.253906 59.023437h-16.441406v-58.902344h3.5v53.503907h13.007812v5.398437zm-135.75 0v-56.023437l-2.773438-3.71875-.527343.597656v59.144531h3.367187zm15.78125-59.023437v24.351562l-12.28125-16.671875v7.796875l12.28125 16.433594v27.113281h3.367188v-59.023437zm136.082031 58.902343 9.570313-40.425781 1.453125-6.238281 10.960937 46.785156h3.832032l-14.394532-59.742187h-.660156l-14.527344 59.742187h3.765625zm52.09375-23.152343c3.960938-3.71875 5.613281-11.035157 5.613281-17.273438 0-14.15625-6.472656-22.433594-18.355468-18.117188v58.664063h3.433594v-53.625c7.328124-2.519531 11.355468 4.320313 11.355468 13.195313 0 5.878906-1.652344 10.4375-4.488281 12.71875 0 0-.066406 0-.066406.117187-2.3125 1.921875-1.785157 4.199219-1.785157 4.199219l.992188 2.398437 8.253906 20.875h4.421875zm0 0" fill="#141225"/></svg>

<svg xmlns="http://www.w3.org/2000/svg" xmlns:xlink="http://www.w3.org/1999/xlink" width="250px" height="250px" viewBox="0 0 250 250" version="1.1">
<g id="surface1">
<path style=" stroke:none;fill-rule:nonzero;fill:rgb(66.666669%,5.490196%,12.54902%);fill-opacity:1;" d="M 140.1875 89.492188 L 126.386719 137.835938 L 108.691406 76.65625 L 108.691406 76.414062 L 105.125 64.539062 L 101.097656 76.65625 L 126.453125 159.910156 L 151.742188 76.65625 L 147.777344 64.539062 Z M 140.1875 89.492188 "/>
<path style=" stroke:none;fill-rule:nonzero;fill:rgb(66.666669%,5.490196%,12.54902%);fill-opacity:1;" d="M 126.453125 0 L 123.347656 8.996094 L 109.023438 52.664062 L 112.652344 65.140625 L 126.453125 25.191406 L 139.988281 65.140625 L 143.6875 52.0625 L 131.667969 15.476562 Z M 126.453125 0 "/>
<path style=" stroke:none;fill-rule:nonzero;fill:rgb(66.666669%,5.490196%,12.54902%);fill-opacity:1;" d="M 126.453125 23.753906 C 83.996094 23.753906 49.53125 81.214844 49.53125 81.332031 C 49.53125 81.332031 83.996094 138.914062 126.453125 138.914062 C 168.90625 138.914062 203.375 81.332031 203.375 81.332031 C 203.375 81.453125 168.90625 23.753906 126.453125 23.753906 Z M 126.453125 126.199219 C 93.375 126.199219 56 81.453125 56 81.332031 C 56 81.332031 93.375 36.46875 126.453125 36.46875 C 159.53125 36.46875 196.902344 80.253906 196.902344 81.332031 C 196.835938 82.414062 159.464844 126.199219 126.453125 126.199219 Z M 126.453125 126.199219 "/>
<path style=" stroke:none;fill-rule:nonzero;fill:rgb(7.843138%,7.058824%,14.509805%);fill-opacity:1;" d="M 16.386719 197.457031 C 14.472656 195.65625 12.488281 194.335938 9.914062 194.335938 C 6.285156 194.335938 4.171875 198.296875 4.171875 203.214844 C 4.171875 208.972656 7.40625 212.691406 10.574219 215.691406 C 16.386719 221.328125 18.960938 227.566406 18.828125 235.125 C 18.695312 245.203125 14.535156 250.121094 9.1875 250 C 4.5 249.878906 1.726562 247.359375 0.0117188 244.722656 L 1.398438 239.683594 C 3.179688 241.960938 5.6875 244.480469 8.992188 244.480469 C 13.085938 244.480469 15.394531 239.5625 15.394531 235.363281 C 15.394531 228.886719 12.6875 225.40625 8.527344 220.96875 C 3.773438 215.8125 0.671875 211.371094 0.671875 203.214844 C 0.671875 196.617188 3.445312 188.820312 9.71875 188.820312 C 12.753906 188.820312 15.859375 190.617188 17.507812 192.660156 Z M 91.65625 223.128906 L 100.503906 223.128906 L 100.503906 241.601562 C 96.34375 248.441406 92.117188 250 88.089844 250 C 77.660156 250 70.726562 236.085938 70.726562 219.289062 C 70.726562 201.535156 78.449219 188.578125 87.628906 188.578125 C 93.503906 188.578125 97.402344 193.019531 99.910156 196.976562 C 99.183594 198.535156 98.523438 200.214844 97.796875 201.65625 C 95.421875 197.816406 92.183594 194.097656 87.695312 194.097656 C 80.433594 194.097656 74.554688 204.894531 74.554688 219.167969 C 74.554688 233.566406 80.167969 244.480469 88.15625 244.480469 C 91.65625 244.480469 95.15625 241.960938 97.003906 239.082031 L 97.003906 228.285156 L 91.589844 228.285156 L 91.589844 223.128906 Z M 116.152344 189.898438 L 119.652344 189.898438 L 119.652344 228.167969 C 119.652344 237.042969 122.621094 244.601562 127.507812 244.601562 C 132.394531 244.601562 135.367188 236.925781 135.367188 228.167969 L 135.367188 189.898438 L 138.867188 189.898438 L 138.867188 228.527344 C 138.867188 239.324219 135.367188 250 127.441406 250 C 119.585938 250 116.085938 239.203125 116.085938 228.527344 L 116.085938 189.898438 Z M 172.40625 248.921875 L 155.964844 248.921875 L 155.964844 190.019531 L 159.464844 190.019531 L 159.464844 243.523438 L 172.472656 243.523438 L 172.472656 248.921875 Z M 36.65625 248.921875 L 36.65625 192.898438 L 33.882812 189.179688 L 33.355469 189.777344 L 33.355469 248.921875 L 36.722656 248.921875 Z M 52.4375 189.898438 L 52.4375 214.25 L 40.15625 197.578125 L 40.15625 205.375 L 52.4375 221.808594 L 52.4375 248.921875 L 55.804688 248.921875 L 55.804688 189.898438 Z M 188.519531 248.800781 L 198.089844 208.375 L 199.542969 202.136719 L 210.503906 248.921875 L 214.335938 248.921875 L 199.941406 189.179688 L 199.28125 189.179688 L 184.753906 248.921875 L 188.519531 248.921875 Z M 240.613281 225.648438 C 244.574219 221.929688 246.226562 214.613281 246.226562 208.375 C 246.226562 194.21875 239.753906 185.941406 227.871094 190.257812 L 227.871094 248.921875 L 231.304688 248.921875 L 231.304688 195.296875 C 238.632812 192.777344 242.660156 199.617188 242.660156 208.492188 C 242.660156 214.371094 241.007812 218.929688 238.171875 221.210938 C 238.171875 221.210938 238.105469 221.210938 238.105469 221.328125 C 235.792969 223.25 236.320312 225.527344 236.320312 225.527344 L 237.3125 227.925781 L 245.566406 248.800781 L 249.988281 248.800781 Z M 240.613281 225.648438 "/>
</g>
</svg>
